packages/gestalt-icons-android/vr-theme/ic_vr_shapes_gestalt.svg

<svg width="24" height="24" viewBox="0 0 24 24" fill="none" xmlns="http://www.w3.org/2000/svg">
<path fill-rule="evenodd" clip-rule="evenodd" d="M19.7945 10.273C20.5541 9.20917 21.001 7.90677 21.001 6.5C21.001 2.91015 18.0908 0 14.501 0C10.9111 0 8.00098 2.91015 8.00098 6.5C8.00098 7.09433 8.08074 7.67003 8.23015 8.21698C8.15104 8.28942 8.07421 8.3648 7.99985 8.44306C7.12543 7.52282 5.91044 7 4.63786 7C2.07644 7 0 9.07644 0 11.6379V11.8596C0 14.5798 2.14302 16.6274 3.92238 17.8865C4.85094 18.5435 5.77307 19.0514 6.45953 19.3941C6.80405 19.5661 7.09237 19.6982 7.29664 19.788C7.39885 19.8329 7.48023 19.8674 7.53731 19.8912C7.56586 19.903 7.58835 19.9122 7.60435 19.9187L7.62344 19.9264L7.62925 19.9287L7.63119 19.9295C7.63149 19.9296 7.6325 19.93 8 19L7.6325 19.93L8 20.0752L8.3675 19.93L8 19C8.3675 19.93 8.3672 19.9301 8.3675 19.93L8.37075 19.9287L8.37655 19.9264L8.39565 19.9187C8.41165 19.9122 8.43414 19.903 8.46269 19.8912C8.51977 19.8674 8.60115 19.8329 8.70336 19.788C8.90763 19.6982 9.19595 19.5661 9.54047 19.3941C9.95722 19.186 10.4608 18.9171 11 18.5909V21C11 22.1046 11.8954 23 13 23H22C23.1046 23 24 22.1046 24 21V16C24 13.3114 22.2316 11.0358 19.7945 10.273ZM17.3296 10C18.3491 9.17502 19.001 7.91363 19.001 6.5C19.001 4.01472 16.9863 2 14.501 2C12.0157 2 10.001 4.01472 10.001 6.5C10.001 6.73408 10.0188 6.96398 10.0533 7.18842C10.4742 7.06463 10.9145 7 11.3619 7C13.3957 7 15.1238 8.30903 15.7495 10.1305C16.1528 10.045 16.5712 10 17 10H17.3296ZM11 16.1986V16C11 13.8264 12.1559 11.9227 13.8865 10.8701C13.5576 9.78769 12.5518 9 11.3619 9C10.6176 9 9.90788 9.31445 9.40783 9.8658L7.99964 11.4185L6.59205 9.86602C6.09203 9.31454 5.38227 9 4.63786 9C3.18101 9 2 10.181 2 11.6379V11.8596C2 13.5138 3.35698 15.0363 5.07762 16.2539C5.89906 16.8351 6.72693 17.2922 7.35296 17.6048C7.60972 17.733 7.83039 17.8358 8 17.912C8.16961 17.8358 8.39028 17.733 8.64703 17.6048C9.27307 17.2922 10.1009 16.8351 10.9224 16.2539C10.9483 16.2355 10.9742 16.2171 11 16.1986ZM17 12H18C20.2091 12 22 13.7909 22 16V21H13V16C13 13.7909 14.7909 12 17 12Z" fill="black"/>
</svg>

<svg xmlns="http://www.w3.org/2000/svg" width="24" height="24"><path d="M19.8 10.27A6.5 6.5 0 1 0 8.23 8.21l-.24.23a4.64 4.64 0 0 0-8 3.2v.22c0 2.72 2.14 4.77 3.92 6.03a20 20 0 0 0 3.68 2.03h.03L8 19l-.37.93.37.15.37-.15L8 19l.37.93.03-.01a12 12 0 0 0 1.14-.53q.64-.3 1.46-.8V21c0 1.1.9 2 2 2h9a2 2 0 0 0 2-2v-5a6 6 0 0 0-4.2-5.73M17 10q-.65 0-1.25.13a4.64 4.64 0 0 0-5.7-2.94A4.5 4.5 0 1 1 17.33 10zm-6.08 6.25A18 18 0 0 1 8 17.91a18 18 0 0 1-2.92-1.66C3.36 15.04 2 13.51 2 11.86v-.22a2.64 2.64 0 0 1 4.6-1.77L8 11.42l1.4-1.55a2.64 2.64 0 0 1 4.49 1A6 6 0 0 0 11 16v.2zM17 12h1a4 4 0 0 1 4 4v5h-9v-5a4 4 0 0 1 4-4"/></svg>
